X:1879
T:Far am bi bó bithidh bean
O:england
M:4/4
L:1/8
Q:130
C:Stephen P. McNally
R:Strathspey
K:D
|:B<B B>A B>A F<A|B/2B/2B B>A B>c d/2c/2B|c<a c>d e>f e>d|c<A d<B e>d c<
A|
|B<B B>A B>A F<A| B/2=c/2B B>A B>^c d>B|c<A d<B e>f e>d|c<a d<A B3 c:|
|:d>A F<d c>A F<c|B<B B>A B>A F<A|B/2B/2B B>A B>c d>B|c<a c>d e>f g<e|
|d>A F<d c>A F<c|B<B B>A B>A F<A| B>c d>B c<a c>d|c<a e<c d3 c:|


